Catalina-dark/actions/22/dialog-rows-and-columns.svg

<svg xmlns="http://www.w3.org/2000/svg" viewBox="0 0 22 22">
  <defs id="defs3051">
    <style type="text/css" id="current-color-scheme">
      .ColorScheme-Text {
        color:#f2f2f2
      }
      </style>
  </defs>
 <path 
     style="fill:currentColor;fill-opacity:1;stroke:none"      
	 class="ColorScheme-Text"
        d="M 3 3 L 3 8.3339844 L 11 8.3339844 L 11 3 L 3 3 z M 12.333984 3 L 12.333984 11 L 19 11 L 19 3 L 12.333984 3 z M 3 12.333984 L 3 19 L 11 19 L 11 12.333984 L 3 12.333984 z M 12.333984 12.333984 L 12.333984 16.333984 L 19 16.333984 L 19 12.333984 L 12.333984 12.333984 z "
     />
</svg>

<svg viewBox="0 0 22 22" xmlns="http://www.w3.org/2000/svg">
<defs>
<style id="current-color-scheme" type="text/css">.ColorScheme-Text {
        color:#f2f2f2
      }</style>
</defs>
<path class="ColorScheme-Text" d="m3 3v5.334h8v-5.334h-8zm9.334 0v8h6.666v-8h-6.666zm-9.334 9.334v6.666h8v-6.666h-8zm9.334 0v4h6.666v-4h-6.666z" fill="currentColor"/>
</svg>
